X: 1
T: Wee Sammy
R: strathspey
Z: 2006 John Chambers <jc:trillian.mit.edu>
M: C
L: 1/8
K: A
|: "A"A,>C E>C "D"D>F A>F | "A"E>A c>A "E7"G<B B2 \
|  "A"A,>C E>C "D"D>F A>F |"E7"E>G B>e "A"c<A A2 :|
|: "A"a>e  c>A "D"d>e f>g | "A"a>e c>A "E7"G<B B2 \
|  "A"a>e  c>A "D"d>e f>a |"E7"(3efe (3dcB "A"c<A A2 :|
